X: 35119
T: Rolling Waves, The
R: jig
M: 6/8
K: Dmajor
|:F2 E EDE|F2 D DED|F2 E EFA|d2 e fdA|
F2 E EDE|F2 D DED|AFE EFA|B3 d3:|
|:ABd e2 f|d2 cB2 A|ABd e2 f|d2 A B3|
ABd ede|fdB BAF|AFE EFA|1 B3 d3:|2 d2e fdA||

